X: 73
T: Schottis efter Finnmark Hellstr\"om
O: V\"armland, Sweden
R: shottish
S: http://www.folksweden.com/files/Schottis_efter_Finnmark_Hellstr_m.pdf (Tim Rued)
Z: 2021 John Chambers <jc:trillian.mit.edu>
M: 2/4
L: 1/16
K: G
Bc |:\
dbbg gBdg | gffa e4 | f2AB cAFA | GABc d2Bc |
dbbg gBdg | gffa e4 | f2AB cAFA | G2B2 [1 G2Bc :|2 GBdc ||
|:\
B2G2 G2AB | c2e2 egfe | eddd d2fa | agga gedc |
B2G2 G2AB | c2e2 egfe | eddd d2fa | aggf [1 g2dc :|2 g2 |]
